X: 4115
T: The HIGHLANDS OF SCOTLAND
R: Strathspey.
%R: strathspey
B: James Kerr "Merry Melodies" v.4 p.14 #115
Z: 2016 John Chambers <jc:trillian.mit.edu>
M: C
L: 1/16
K: Em
|:\
B4-B3A Be3 e3f | g3f e3f g3f gb3 |\
B4-B3A Be3 e3f | g3e agfe d3e fd3 :|
|:\
e3bg3b e3b agfe | d3af3a d3f bagf |\
e3bg3b e3b agfe | fefg bagf e4- e2B2 :|

%%sep 1 1 500
%%sep 1 1 500

